X:1
T:Even I May Be Saved
T:Even I May Be Saved
T:Frank E. Wilder
T:Frank E. Wilder, 1907
T:Public Domain Courtesy of the Cyber Hymnal™
T:Public Domain Courtesy of the Cyber Hymnal™
C:Frank E. Wilder
Z:Public Domain
Z:Courtesy of the Cyber Hymnal™
%%score ( 1 2 ) ( 3 4 )
L:1/8
Q:1/4=110
M:6/4
K:Ab
V:1 treble 
V:2 treble 
V:3 bass 
V:4 bass 
V:1
 [A,C][B,D] | [CE]2 [EA]2 [EB]2 [Ec]4 [EB][EA] | [Fd]2 [FA]2 [FB]2 [Ec]4 [Ec][Ec] | %3
w: 1.~I have|wan- dered so long Midst the|plea- sures of earth, Spread a-|
w: 2.~Shall I|list to that voice, Shall I|turn from the way, That my|
w: 3.~Can it|be that my life Can be|made pure and clean, By the|
w: 4.~Je- sus,|come to me now, Take me|just as I am, All my|
 [=DB]2 [DF]2 [DA]2 [_DG]2 [DA]2 [DB]2 | [CE]6- [CE]4 [A,C][B,D] | %5
w: round me in dazz- ling ar-|ray; * But a|
w: foot- steps have fol- lowed so|long? * Still He|
w: blood shed on Cal- va- ry’s|tree? * But His|
w: sin, all my will I re-|sign; * To be|
 [CE]2 [EA]2 [EB]2 [Ec]4 [EB][EA] | [FB]2 [DF]2 [EG]2 [EA]4 [Ec][Ed] | %7
w: still voice di- vine Speaks to|this heart of mine, Bid- ding|
w: ten- der- ly calls, “Come, oh,|come un- to Me, All ye|
w: prom- ise is plain, He will|cleanse ev- ery stain, From the|
w: guid- ed by Thee, Is suf-|fi- cient for me, Just to|
 [Ee]2 [Ec]2 [CA]2 [FB]4 [Ec]2 | A6- [CA]4 ||"^Refrain" [Ec]2 | [Ae]4 [Ac][GB] [FA]4 [Cc][_Gc] | %11
w: me to turn back to-|day. *|||
w: wea- ry” of sin and|wrong. And||I may be saved, e- ven|
w: heart that ac- cepts His|plea. *|||
w: know that Thy love is|mine. *|||
 [GB]2 [FA]2 [DF]2 [CA]4 [Ec][Ec] | [=DB]2 [DF]2 [DA]2 [EG]2 [DG]3 [DF] | E6- [B,E]4 [A,C][B,D] | %14
w: |||
w: I may be saved, Oh, what|mer- cy, Lord, how can it|be? Je- sus suf-|
w: |||
w: |||
 [CE]2 [EA]2 [EB]2 [Ec]4 [EB][=EA] | [Fd]2 [FA]2 [FB]2 [=Ec]4 [FB][Fc] | %16
w: ||
w: * fered and died, On the|cross cru- ci- fied, Just to|
w: ||
w: ||
 [Fd]3 [Ee] [Ec]2 [DB] [CA]3 [DB]2 | [CA]6- [CA]4 x2 |] x10 |] %19
w: |||
w: save a poor sin- ner like|me. *||
w: |||
w: |||
V:2
 x2 | x12 | x12 | x12 | x12 | x12 | x12 | x12 | C4 D2 x4 || x2 | x12 | x12 | x12 | E2 D2 C2 x6 | %14
 x12 | x12 | x12 | x12 |] x10 |] %19
V:3
 [A,,E,][A,,E,] | [A,,A,]2 [C,A,]2 [B,,G,]2 [A,,A,]4 [C,A,][C,A,] | %2
w: ~ ~|~ ~ ~ ~ ~ ~|
 [D,A,]2 [D,A,]2 [D,A,]2 [A,,A,]4 [A,,A,][A,,A,] | %3
w: ~ ~ ~ ~ ~ ~|
 [B,,F,]2 [B,,A,]2 [B,,C]2 [E,B,]2 [E,F,]2 [E,G,]2 | A,6 [A,,A,]4 [A,,E,][A,,E,] | %5
w: ~ ~ ~ ~ ~ ~|~ ~ ~ ~|
 [A,,A,]2 [C,A,]2 [B,,G,]2 [A,,A,]4 [C,A,][C,A,] | [D,A,]2 [D,A,]2 [D,B,]2 [C,A,]4 [A,,A,][B,,G,] | %7
w: * ~ ~ ~ ~ ~|~ ~ ~ ~ ~ ~|
 [C,A,]2 [B,,A,]2 [F,A,]2 (A,2 F,2) [E,G,]2 | (A,2 E,2 F,2 [A,,E,]4) || [A,,A,]2 | %10
w: ~ ~ ~ ~ * ~|~ * * *||
 [A,C]4 [A,E][E,D] x6 | [F,C]4 [F,A,][E,A,] x6 | [D,A,]2 [D,A,]2 [D,A,]2 [A,,A,]4 [A,,A,][A,,A,] | %13
w: ~ ~ ~|~ ~ ~|~ ~ ~ ~ ~ ~|
 [B,,F,]2 [B,,A,]2 [B,,C]2 [B,,B,]2 [B,,B,]3 [B,,A,] | G,2 B,2 A,2 [E,G,]4 [A,,E,][A,,E,] | %15
w: ~ ~ ~ ~ ~ ~|~ ~ can be? * *|
 [A,,A,]2 [C,A,]2 [E,G,]2 A,4 [A,D][A,C] | [D,A,]2 [D,A,]2 [D,F,]2 [C,G,]4 [D,B,][F,=A,] | %17
w: ||
 B,3 [G,B,] A,2 [E,G,] [F,A,]3 [E,G,]2 |] [A,,E,A,]6- [A,,E,A,]4 |] %19
w: ||
V:4
 x2 | x12 | x12 | x12 | A,2 C,2 E,2 x6 | x12 | x12 | x6 D,4 x2 | A,,6- x4 || x2 | x12 | x12 | x12 | %13
 x12 | E,6- x6 | x6 A,4 x2 | x12 | B,3 A,2 x7 |] x10 |] %19

